Sources/FrostedUI/Resources/Icons.xcassets/bell12.imageset/bell-12.svg

<svg width="12" height="12" viewBox="0 0 12 12" fill="none" xmlns="http://www.w3.org/2000/svg" data-fui-icon="true">
  <g clip-path="url(#clip0_4063_733)">
    <path
      d="M5.24976 9.75C5.24976 10.0463 5.35334 10.2137 5.46655 10.3145C5.59362 10.4274 5.78463 10.5 5.99976 10.5C6.21489 10.5 6.40586 10.4274 6.53296 10.3145C6.64621 10.2137 6.74976 10.0464 6.74976 9.75L5.24976 9.75ZM5.99976 1.5C5.35963 1.50003 4.90149 1.65349 4.56421 1.86816C4.22306 2.08544 3.96356 2.39245 3.76636 2.75684C3.361 3.50595 3.25668 4.42719 3.24097 5.01855C3.2281 5.50245 3.08753 6.01981 2.75269 6.4541L2.47437 6.81641C2.20121 7.17079 2.23323 7.67282 2.54956 7.98926C2.7165 8.15621 2.94335 8.24998 3.17944 8.25L8.81421 8.25C9.05426 8.24998 9.2841 8.1541 9.45386 7.98438C9.77232 7.66591 9.80882 7.16216 9.53882 6.80176L9.23901 6.40234C8.9085 5.96164 8.7725 5.44084 8.75854 4.95703C8.74159 4.36984 8.63435 3.46649 8.23022 2.7334C7.85697 2.05642 7.22613 1.5 5.99976 1.5ZM8.24976 9.75C8.24976 10.4535 7.97825 11.0363 7.52905 11.4355C7.09369 11.8224 6.53447 12 5.99976 12C5.46506 12 4.90579 11.8224 4.47046 11.4355C4.02132 11.0363 3.74976 10.4535 3.74976 9.75H3.17944C2.5455 9.74998 1.93726 9.49809 1.48901 9.0498C0.639528 8.20022 0.552469 6.85194 1.28589 5.90039L1.56519 5.53809C1.66848 5.40399 1.73476 5.21195 1.74097 4.97852C1.75888 4.30498 1.87404 3.10184 2.44702 2.04297C2.739 1.50342 3.15927 0.985172 3.75854 0.603516C4.36162 0.219522 5.10521 3.38939e-05 5.99976 0C7.83203 0 8.93755 0.907646 9.54468 2.00879C10.1207 3.05365 10.2382 4.24267 10.2576 4.91406C10.2646 5.15831 10.3327 5.35988 10.4392 5.50195L10.738 5.90137C11.4563 6.85898 11.3618 8.19946 10.5154 9.0459C10.0643 9.4969 9.45207 9.74998 8.81421 9.75H8.24976Z"
      fill="currentColor"
    />
  </g>
  <defs>
    <clipPath id="clip0_4063_733"><path fill="currentColor" d="M0 0H12V12H0z" /></clipPath>
  </defs>
</svg>

<svg xmlns="http://www.w3.org/2000/svg" width="12" height="12" fill="none" data-fui-icon="true" viewBox="0 0 12 12"><g clip-path="url(#a)"><path fill="currentColor" d="M5.25 9.75c0 .296.103.464.217.565A.8.8 0 0 0 6 10.5a.8.8 0 0 0 .533-.185c.113-.101.217-.269.217-.565zM6 1.5c-.64 0-1.099.153-1.436.368-.34.217-.6.524-.798.889-.405.749-.51 1.67-.525 2.262a2.45 2.45 0 0 1-.488 1.435l-.279.362A.89.89 0 0 0 3.18 8.25h5.635a.905.905 0 0 0 .725-1.448l-.3-.4a2.5 2.5 0 0 1-.48-1.445c-.017-.587-.125-1.49-.529-2.224C7.857 2.056 7.226 1.5 6 1.5m2.25 8.25c0 .704-.272 1.286-.721 1.685a2.3 2.3 0 0 1-1.53.565 2.3 2.3 0 0 1-1.529-.565c-.449-.399-.72-.982-.72-1.685h-.57A2.39 2.39 0 0 1 1.285 5.9l.28-.362a.95.95 0 0 0 .175-.56c.018-.673.133-1.876.706-2.935A3.85 3.85 0 0 1 3.759.603C4.362.22 5.105 0 5.999 0c1.833 0 2.939.908 3.546 2.009.576 1.045.693 2.234.713 2.905.007.244.075.446.181.588l.299.4A2.406 2.406 0 0 1 8.814 9.75z"/></g><defs><clipPath id="a"><path fill="currentColor" d="M0 0h12v12H0z"/></clipPath></defs></svg>
